!!!!SEGMENT: pl-cz--ii-87--008_krogulski-jozef-wladyslaw--offertorium.krn
!!!cenid: 18xx:1206
!!!COM: Krogulski, Józef Władysław
!!!COM-rismid: pe30001797
!!!CDT: 1815/10/04-1842/01/09
!!!CNT: Polish
!!!OTL: Offertorium
!!!PDT: 1888
!!!AGN: Sacred
!!!SMS-siglum: PL-CZ
!!!SMS-shelfmark: II-87
!!!SMS-shelfwork: 008 W
!!!SMS-variant:
!!!SMS-altvar:
!!!NIFC-rismid: 300033231
!!!URL-scan: http://repozytorium.nifc.pl/skany/pl-cz-nut--ii-87
!!!ONB-nifc:
!!!AIN: 1 organ 1 soprn
!!!key: D-
!!!OMD: Andante
**kern	**kern	**kern	**text
*part2	*part2	*part1	*part1
*staff3	*staff2	*staff1	*staff1
*I"[Organo]	*I"[Organo]	*I"Sopran Solo	*
*Iorgan	*Iorgan	*Isoprn	*
*ICklav	*ICklav	*ICvox	*
*IGacmp	*IGacmp	*IGsolo	*
*clefF4	*clefG2	*clefG2	*
*k[b-e-a-d-g-]	*k[b-e-a-d-g-]	*k[b-e-a-d-g-]	*
*D-:	*D-:	*D-:	*
*M12/8	*M12/8	*M12/8	*
4r	4a-/	4.r	.
8r	8a-/	.	.
=1	=1	=1	=1
*^	*	*	*
!LO:N:vis=2	!LO:N:vis=2	!LO:N:vis=2	!	!
8D-/L	2.D-\	2.a-/	1.r	.
8F/	.	.	.	.
8A-/	.	.	.	.
8d-/	.	.	.	.
8A-/	.	.	.	.
8F/J	.	.	.	.
!LO:N:vis=4	!LO:N:vis=4	!LO:N:vis=4	!	!
8D-/L	4.D-\	4.b-/	.	.
8G-/	.	.	.	.
8B-/J	.	.	.	.
!LO:N:vis=4	!LO:N:vis=4	!LO:N:vis=4	!	!
8D-/L	4.D-\	4.cc\	.	.
8G-/	.	.	.	.
8B-/J	.	.	.	.
=2	=2	=2	=2	=2
!LO:N:vis=4	!LO:N:vis=4	!LO:N:vis=4	!	!
8D-/L	4.D-\	4.dd-\	1.r	.
8F/	.	.	.	.
8A-/J	.	.	.	.
!LO:N:vis=4	!LO:N:vis=4	!LO:N:vis=4	!	!
8BB-/L	4.BB-\	4.ddn\	.	.
8F/	.	.	.	.
8A-/J	.	.	.	.
!LO:N:vis=4	!LO:N:vis=4	!LO:N:vis=4	!	!
8E-/L	4.E-\	4.ee-\	.	.
8G-/	.	.	.	.
8A-/J	.	.	.	.
!LO:N:vis=4	!LO:N:vis=4	!LO:N:vis=4	!	!
8BB--/L	4.BB--\	4.een\	.	.
8D-/	.	.	.	.
8B--/J	.	.	.	.
*v	*v	*	*	*
!!LO:LB:g=original
=3	=3	=3	=3
!LO:N:vis=2	!	!	!
8AA-/L	8ff\L	1.r	.
8D-/	8bb-\	.	.
8F/	8aa-\J	.	.
8A-/	8ff\L	.	.
8F/	8dd-\	.	.
8D-/J	8b-\J	.	.
!LO:N:vis=2	!	!	!
8AA-/L	8a-/L	.	.
8C/	8b-/	.	.
8E-/	8a-/J	.	.
8A-/	8g-/L	.	.
8E-/	8e-/	.	.
8C/J	8c/J	.	.
=4||	=4||	=4||	=4||
!LO:N:vis=4	!	!LO:N:vis=1	!
4.D-/	8d-/L	2.r	.
.	8A-/	.	.
.	8f/J	.	.
!LO:N:vis=4	!	!	!
*	*rep	*	*
4.AA-/	8d-/L	.	.
.	8A-/	.	.
.	8f/J	.	.
*	*Xrep	*	*
!LO:N:vis=4	!	!	!
*	*rep	*	*
4.FF/	8d-/L	4r	.
.	8A-/	.	.
.	8f/J	8r	.
*	*Xrep	*	*
!LO:N:vis=4	!	!	!
*	*rep	*	*
4.AA-/	8d-/L	4a-/	U
.	8A-/	.	.
.	8f/J	8a-/	nóg
*	*Xrep	*	*
=5	=5	=5	=5
!LO:N:vis=1	!	!LO:N:vis=2	!
1.D- 1.DD-	8A-/L	2.a-/	Swię[[tych]]-
.	8d-/	.	.
.	8f/	.	.
.	8a-/	.	.
.	8f/	.	.
.	8d-/J	.	.
.	8B-/L	4.b-/	-tych
.	8d-/	.	.
.	8g-/J	.	.
.	8A-/L	4.cc/	oł-
.	8e-/	.	.
.	8g-/J	.	.
!!LO:LB:g=original
=6	=6	=6	=6
!LO:N:vis=1	!	!	!
1.D- 1.DD-	8A-/L	4.ee-\	-tar-
.	8d-/	.	.
.	8f/	.	.
.	8a-/	4.ee-\	.
.	8f/	.	.
.	8d-/J	.	.
*	*rep	*	*
.	8A-/L	4.dd-\	-rży
.	8d-/	.	.
.	8f/	.	.
.	8a-/	4.a-/	.
.	8f/	.	.
.	8d-/J	.	.
*	*Xrep	*	*
=7	=7	=7	=7
!	!	!LO:N:vis=2	!
2.G- 2.GG-\	8B--/L	2.b--/	Twych
.	8d-/	.	.
.	8g-/	.	.
!	!LO:SIC:s=8b--	!	!
.	8b-/	.	.
.	8g-/	.	.
.	8d-/J	.	.
2.G- 2.GG-\	8c/L	8a-/L	u-
.	8e-/	16b-X/L	.
.	.	16a-/	.
.	8g-/J	16gn/	.
.	.	16a-/JJ	.
.	8c/L	4b-/	-po-
.	8e-/	.	.
.	8g-/J	8a-/	-ko
=8	=8	=8	=8
!LO:N:vis=1	!	!	!
1.D- 1.DD-	8A-/L	4.g-X/	.
.	8d-/	.	.
.	8f/	.	.
.	8a-/	4.f/	.
.	8f/	.	.
.	8d-/J	.	.
*	*rep	*	*
!	!	!LO:N:vis=8	!
.	8A-/L	4.r	.
.	8d-/	.	.
.	8f/	.	.
.	8a-/	4.dd-\	.
.	8f/	.	.
.	8d-/J	.	.
*	*Xrep	*	*
!!LO:LB:g=original
=9	=9	=9	=9
2.A- 2.AA-\	8c/L	4.ee-\	O-
.	8e-/	.	.
.	8a-/	.	.
.	8cc/	4ee-\	-fia-
.	8a-/	.	.
.	8e-/J	8ee-\	-ru-
2.F 2.FF/	8dn/L	4.ff\	-jem
.	8a-/	.	.
.	8b-/	.	.
.	8dd-/	8ff\L	ci
.	8b-/	8ee-\	.
.	8a-/J	8ff\J	.
=10	=10	=10	=10
2.E- 2.EE-/	8e-/L	4.aa-\	Bo-
.	8g-/	.	.
.	8b-/	.	.
.	8ee-/	4gg-\	-że
.	8b-/	.	.
.	8g-/J	8r	.
2.GG-/	8B-/L	4r	.
.	8e-/	.	.
.	8g-/	8r	.
.	8b-/	4ff\	dar
.	8g-/	.	.
.	8e-/J	8ee-\	.
=11	=11	=11	=11
2.AA-/	8A-/L	4.dd-\	Chle-
.	8d-/	.	.
.	8f/	.	.
.	8a-/	8dd-\L	.
.	8f/	8cc\	.
.	8d-/J	8b-\J	.
2.BB-/	8Gn/L	8an\L	-ba
.	8d-/	8b-\	.
.	8e-/	8dd-\J	.
.	8gn/	4ff\	i
.	8e-/	.	.
.	8d-/J	8ee-\	.
!!LO:PB:g=original
=12	=12	=12	=12
!LO:N:vis=1	!	!	!
1.AA-	8A-/L	4.ff\	vi-
.	8c/	.	.
.	8e-/	.	.
.	8a-/	4ee-\	-na
.	8e-/	.	.
.	8c/J	8r	.
.	8A-/L	4r	.
.	8c/	.	.
.	8e-/	8r	.
.	8g-X/	4a-/	U
.	8e-/	.	.
.	8c/J	8a-/	nóg
=13	=13	=13	=13
!LO:N:vis=1	!	!LO:N:vis=2	!
1.D- 1.DD-	8A-/L	2.a-/	Swię-
.	8d-/	.	.
.	8f/	.	.
.	8a-/	.	.
.	8f/	.	.
.	8d-/J	.	.
.	8B-/L	4.b-/	-tych
.	8d-/	.	.
.	8g-/J	.	.
.	8A-/L	4.cc/	oł-
.	8e-/	.	.
.	8g-/J	.	.
=14	=14	=14	=14
!LO:N:vis=1	!	!	!
1.D- 1.DD-	8A-/L	4.ee-\	-ta-
.	8d-/	.	.
.	8f/	.	.
.	8a-/	4.ee-\	.
.	8f/	.	.
.	8d-/J	.	.
*	*rep	*	*
.	8A-/L	4.dd-\	-rży
.	8d-/	.	.
.	8f/	.	.
.	8a-/	4.a-/	.
.	8f/	.	.
.	8d-/J	.	.
*	*Xrep	*	*
!!LO:LB:g=original
=15	=15	=15	=15
!LO:N:vis=2	!	!LO:N:vis=2	!
2.G- 2.GG-/	8B--/L	2.b--/	Twych
.	8d-/	.	.
.	8g-/	.	.
.	8b--/	.	.
.	8g-/	.	.
.	8d-/J	.	.
!LO:N:vis=2	!	!	!
2.A- 2.AA-/	8c/L	8a-/L	u-
!	!	!LO:SIC:s=8b-	!
.	8e-/	16b--/L	.
.	.	16a-/	.
.	8g-/J	16gn/	.
.	.	16a-/JJ	.
.	8d-/L	8cc\L	-po-
!	!	!LO:SIC:s=8b-	!
.	8e-/	8b--\	-ko-
.	8g-/J	8a-\J	.
=16	=16	=16	=16
!LO:N:vis=1	!	!	!
1.D- 1.DD-	8A-/L	4.a-/	-rże-
.	8d-/	.	.
.	8f/	.	.
.	8a-/	4.f/	-ni
.	8f/	.	.
.	8d-/J	.	.
*	*rep	*	*
.	8A-/L	8r	.
!	!	!LO:N:vis=4	!
.	8d-/	8r	.
.	8f/	8r	.
.	8a-/	4.dd-\	o-
.	8f/	.	.
.	8d-/J	.	.
*	*Xrep	*	*
!!LO:LB:g=original
=17	=17	=17	=17
!LO:N:vis=2	!	!	!
2.A- 2.AA-/	8c/L	4.ee-\	-fia-
.	8e-/	.	.
.	8a-/	.	.
.	8cc/	4.ee-\	-ru-
.	8a-/	.	.
.	8e-/J	.	.
!LO:N:vis=2	!	!	!
2.F 2.FF/	8dn/L	4.ee-\	-je-
.	8a-/	.	.
.	8b-/	.	.
.	8dd-/	8ff\L	-mi
.	8b-/	8ee-\	.
!	!	!LO:TX:t=P:problem=utwór urywa się w tym takcie	!
.	8a-/J	8ff\J	ci
==	==	==	==
*-	*-	*-	*-
!!!system-decoration: (s1,s2,s3)
!!!ENC: Andrzej Kubiczek
!!!END: 2020-11-10
!!!ENC: Marta Lawrence
!!!END: 2021-11-15
